resources/themes/cura/icons/settings.svg

<?xml version="1.0" encoding="UTF-8" standalone="no"?>
<svg width="13px" height="13px" viewBox="0 0 13 13" version="1.1" xmlns="http://www.w3.org/2000/svg" xmlns:xlink="http://www.w3.org/1999/xlink" xmlns:sketch="http://www.bohemiancoding.com/sketch/ns">
    <!-- Generator: Sketch 3.3.3 (12081) - http://www.bohemiancoding.com/sketch -->
    <title>Fill 1 Copy 3</title>
    <desc>Created with Sketch.</desc>
    <defs></defs>
    <g id="Page-1" stroke="none" stroke-width="1" fill="none" fill-rule="evenodd" sketch:type="MSPage">
        <g id="Artboard-9" sketch:type="MSArtboardGroup" fill="#979797">
            <path d="M12.9591703,5.77835943 C12.9386134,5.59558436 12.7256076,5.45815541 12.5413815,5.45815541 C11.945715,5.45815541 11.4171607,5.10856711 11.1953879,4.56749729 C10.9691411,4.01342825 11.1150951,3.36745775 11.5588824,2.96031012 C11.6986693,2.832555 11.7157195,2.61858181 11.5985451,2.47002795 C11.2936378,2.08289306 10.9471935,1.73312338 10.5688256,1.43009042 C10.4207554,1.31134407 10.203215,1.32785005 10.0747343,1.47005546 C9.68741806,1.89915061 8.99138546,2.05858755 8.45358056,1.83421498 C7.89413045,1.59877796 7.54103538,1.0317097 7.57574027,0.423043942 C7.58704657,0.231743807 7.44725962,0.065474726 7.25668502,0.0432853613 C6.77105838,-0.0129438188 6.2812599,-0.0145762789 5.79424265,0.0394762878 C5.60602605,0.0602750383 5.46617864,0.222553661 5.47258755,0.411495799 C5.49356769,1.01423633 5.13648216,1.57132845 4.58241312,1.79830086 C4.05101714,2.01535759 3.35994238,1.85712988 2.97335165,1.43178334 C2.84559653,1.29169408 2.63180473,1.27446256 2.48282763,1.39066953 C2.09333475,1.69630233 1.73909092,2.04631387 1.43134196,2.43030475 C1.31138638,2.57958415 1.32910159,2.79591534 1.47009777,2.92415415 C1.92259152,3.33396209 2.06854554,3.9855555 1.83353175,4.54603346 C1.60915919,5.08045252 1.05442507,5.42459928 0.419337643,5.42459928 C0.213163982,5.41800898 0.0664844221,5.55640532 0.0438113656,5.74389638 C-0.0133851983,6.2320624 -0.0140502746,6.72972088 0.0409696758,7.22187736 C0.0615265804,7.40543842 0.280941306,7.54171861 0.4672836,7.54171861 C1.03338447,7.52726831 1.57657045,7.87752169 1.80475209,8.43231627 C2.03196634,8.98638531 1.88577048,9.63211396 1.44125765,10.0397453 C1.30213577,10.1675004 1.28442056,10.3809899 1.40183676,10.5293624 C1.70366049,10.9140788 2.05034664,11.2640903 2.42992383,11.5697231 C2.57890093,11.6896787 2.79547396,11.6729309 2.92468016,11.5304836 C3.31368934,11.1004211 4.0094801,10.941226 4.54510839,11.1660823 C5.10625142,11.4008542 5.45910464,11.9679225 5.4246416,12.5767696 C5.41327484,12.7680697 5.55360594,12.9348225 5.743455,12.9565282 C5.9919517,12.9856102 6.24177855,13 6.4923914,13 C6.73024688,13 6.9680419,12.9870008 7.20589738,12.9605791 C7.39435582,12.9397804 7.53396139,12.7772599 7.52755247,12.5883178 C7.5058468,11.9858191 7.86365786,11.428727 8.41700136,11.2021778 C8.95196457,10.9837304 9.6399558,11.1436511 10.0267884,11.5682721 C10.155269,11.7081195 10.3676098,11.7251091 10.5173124,11.6093859 C10.9060797,11.3044786 11.2596585,10.9547089 11.5687981,10.5697507 C11.6887536,10.4207131 11.671764,10.2041401 11.5300423,10.0756594 C11.0775485,9.66609331 10.9308689,9.01425805 11.1658827,8.45426379 C11.3866881,7.92716057 11.9209257,7.57309812 12.4955517,7.57309812 L12.5758445,7.57521427 C12.7624287,7.59032964 12.9338974,7.44673362 12.9563287,7.25640087 C13.0137066,6.76775115 13.0144321,6.27057637 12.9591703,5.77835943 L12.9591703,5.77835943 Z M6.51034846,8.68196174 C5.31478308,8.68196174 4.34244149,7.7093783 4.34244149,6.51387338 C4.34244149,5.318308 5.31478308,4.34572456 6.51034846,4.34572456 C7.70609523,4.34572456 8.67843682,5.318308 8.67843682,6.51387338 C8.67843682,7.7093783 7.70609523,8.68196174 6.51034846,8.68196174 L6.51034846,8.68196174 Z" id="Fill-1-Copy-3" sketch:type="MSShapeGroup"></path>
        </g>
    </g>
</svg>

<svg xmlns="http://www.w3.org/2000/svg" viewBox="0 0 13 13">
    <path d="M12.96 5.778c-.021-.182-.234-.32-.419-.32-.595 0-1.124-.35-1.346-.89a1.45 1.45 0 0 1 .364-1.608.361.361 0 0 0 .04-.49 6.43 6.43 0 0 0-1.03-1.04.362.362 0 0 0-.494.04c-.388.43-1.084.589-1.621.364A1.444 1.444 0 0 1 7.576.423a.36.36 0 0 0-.32-.38A6.485 6.485 0 0 0 5.795.04a.362.362 0 0 0-.321.372 1.447 1.447 0 0 1-.89 1.387c-.532.217-1.223.06-1.61-.366a.362.362 0 0 0-.49-.041A6.46 6.46 0 0 0 1.43 2.43a.362.362 0 0 0 .04.493 1.44 1.44 0 0 1 .363 1.622c-.225.534-.78.879-1.415.879a.354.354 0 0 0-.375.319A6.51 6.51 0 0 0 .04 7.222c.02.183.24.32.426.32a1.426 1.426 0 0 1 1.338.89c.227.554.08 1.2-.364 1.608a.36.36 0 0 0-.04.49c.303.384.65.734 1.029 1.04.149.12.365.103.495-.04.389-.43 1.084-.589 1.62-.364.561.235.914.802.88 1.41a.36.36 0 0 0 .318.38 6.44 6.44 0 0 0 1.463.005.362.362 0 0 0 .322-.373 1.445 1.445 0 0 1 .889-1.386c.535-.218 1.223-.058 1.61.366.128.14.34.157.49.041a6.476 6.476 0 0 0 1.052-1.04.361.361 0 0 0-.039-.493 1.44 1.44 0 0 1-.364-1.622c.22-.527.755-.88 1.33-.88l.08.001a.362.362 0 0 0 .38-.319c.058-.488.058-.985.003-1.478zM6.51 8.682a2.17 2.17 0 0 1-2.168-2.168A2.17 2.17 0 0 1 6.51 4.346a2.17 2.17 0 0 1 2.168 2.168A2.17 2.17 0 0 1 6.51 8.682z"/>
</svg>
